!!!OTL@@FUR: E duc' mi disin ch'o soi biele
!!!OTL@IT: Tutti mi dicono che sono bella
!!!OTL@EN: Everyone tells me I'm beautiful
**kern
*clefG2
*k[b-]
*F:
*M4/4
*MM111
*>[A,A]
*>A
4cc
8dd
8dd
=1
2cc
8a
8cc
8b-
8a
=2
4g
4g
4dd
8ee
8ee
=3
2dd
8ee
8dd
8cc
8b-
=4
4a
8a
8r
4cc
8dd
8dd
=5
2cc
8a
8cc
8b-
8a
=6
4g
4g
4dd
8cc
8dd
=7
4.ee
8dd
8cc
8dd
8cc
8b-
=8
2a
==:|!
*-
!!!ARE: Friuli
!!!ENC: Kelly Leistikow
!!!END: 2002/03/07
!!!ref: @{OTL@@FUR}/@{OTL@EN}
